X: 100306
T: KEEP THE COUNTRY, BONNIE LASSIE
R: reel
B: K\"ohler's Violin Repository, v.3, 1885 p.219 #3
F: http://www.archive.org/details/klersviolinrepos03rugg
Z: 2012 John Chambers <jc:trillian.mit.edu>
M: C|
L: 1/8
K: A
uf |\
eAcA Bcdf | eAcA eAcA | dfce Bcdf | ecac {f}e2(A :|
ug) |\
(a/g/f/e/) (ce) Bcdf | (a/g/f/e/) (ce) aece | (a/g/f/e/) (ce) Bcdf | ecac e2(Ag) |
(a/g/f/e/) (ce) Bcdf | (a/g/f/e/) (ce) (a/g/f/e/) (ce) | dfce Bcdf | eaca e2(A  |]

%%sep 2 1 500

